X: 2927
T:Jacket of Batteries
M:C|
L:1/8
R:reel
K:D
D2FD CEAG|Fddc dAFA|GBeG FAdF|GFED CA,CE|
D2FD CEAG|Fddc dAFA|GBed cAGE|1 EDCE DA,B,C:|2 EDCE D2fg||
|:a^gaf =ge~e2|dfec dAFA|GBeG FAdf|gfed efgb|
af~f2 ge~e2|dfec dAFA|GBed cAGE|1 EDCE D2fg:|2 EDCE DA,B,C||
